X:7641
T:Tour de Taille (F. Paris)
O:england
C:F. Paris: Rue de l'oiseau
M:3/4
L:1/8
K:C
e2f2|:ge dc ag|gz ge dc|d3c ed|d3G cd|\
e3d cd|A2 AB cd|ed cB AB|1 cc cd ef:|2 c3 c de||
|:~d2 cc de|g2 gc de|~d2 cc de|g3c de|\
~d2 cc de|g6|fe dc de|1 ed dc de:|2 ed dd ef||
c3d d2|e2zA Bc\
|:~B2 AA Bc|d3d ef|g3g ed|c3c de|\
~d2 cd eg|G3dd2|e3A Bc|\
~B2 AA Bc|d3d ef|g3g ed|c3c de|1 d4c2|\
c6-|c3 A Bc:|2 d4c2-|c3dd2|e2e2f2||
